dist/img/svg/ic_sort.svg

<svg xmlns="http://www.w3.org/2000/svg" viewBox="0 0 24 24"><path d="M19 7h3l-4-4-4 4h3v14h2M2 17h10v2H2M6 5v2H2V5m0 6h7v2H2v-2z"/></svg>

<svg xmlns="http://www.w3.org/2000/svg" viewBox="0 0 24 24"><path d="M19 7H22L18 3L14 7H17V21H19M2 17H12V19H2M6 5V7H2V5M2 11H9V13H2V11Z" /></svg>
